X: 12368
T: Famous Ballymote, The
R: reel
M: 4/4
K: Dmixolydian
||FDAD F~A3|cABG EFGE|FDAD F~A3|cAGE FD D2:|
FDFA d2 ed|cABG EFGE|1 FDFA d2 ed|cAGE FD D2:|2 FDFA df ed|cAGE FD D2||

